icons/1_Primary/Grist.svg

<svg xmlns="http://www.w3.org/2000/svg" viewBox="0 0 1024 1024">
   <circle cx="512" cy="512" r="512" style="fill:#2cb0af"/>
   <path d="M744 293.27h-70.82c-32.68 0-59.21 28-59.21 62.41v62.19h71.38c32.37 0 58.65-27.7 58.65-61.82Zm-296.07 0h70.82c32.68 0 59.21 28 59.21 62.41v62.19h-71.38c-32.37 0-58.65-27.7-58.65-61.82ZM280 451.38h70.82c32.68 0 59.21 28 59.21 62.41V576h-71.38c-32.37 0-58.65-27.7-58.65-61.82Zm0 154.75h70.82c32.68 0 59.21 28 59.21 62.41v62.19h-71.38c-32.37 0-58.65-27.7-58.65-61.82Zm167.93-154.75h70.82c32.68 0 59.21 28 59.21 62.41V576h-71.38c-32.37 0-58.65-27.7-58.65-61.82Zm296.07 0h-70.82c-32.68 0-59.21 28-59.21 62.41V576h71.38c32.37 0 58.65-27.7 58.65-61.82ZM447.93 606.14h70.82c32.68 0 59.21 28 59.21 62.41v62.19h-71.38c-32.37 0-58.65-27.7-58.65-61.82Zm296.07 0h-70.82c-32.68 0-59.21 28-59.21 62.41v62.19h71.38c32.37 0 58.65-27.7 58.65-61.82Z" style="fill:#fff"/>
</svg>

<svg width="1024" height="1024" viewBox="0 0 1024 1024" fill="none" xmlns="http://www.w3.org/2000/svg">
<g clip-path="url(#clip0_2_2340)">
<path d="M512 1024C794.77 1024 1024 794.77 1024 512C1024 229.23 794.77 0 512 0C229.23 0 0 229.23 0 512C0 794.77 229.23 1024 512 1024Z" fill="#96DFD3"/>
<path d="M744 293.27H673.18C640.5 293.27 613.97 321.27 613.97 355.68V417.87H685.35C717.72 417.87 744 390.17 744 356.05V293.27ZM447.93 293.27H518.75C551.43 293.27 577.96 321.27 577.96 355.68V417.87H506.58C474.21 417.87 447.93 390.17 447.93 356.05V293.27ZM280 451.38H350.82C383.5 451.38 410.03 479.38 410.03 513.79V576H338.65C306.28 576 280 548.3 280 514.18V451.38ZM280 606.13H350.82C383.5 606.13 410.03 634.13 410.03 668.54V730.73H338.65C306.28 730.73 280 703.03 280 668.91V606.13ZM447.93 451.38H518.75C551.43 451.38 577.96 479.38 577.96 513.79V576H506.58C474.21 576 447.93 548.3 447.93 514.18V451.38ZM744 451.38H673.18C640.5 451.38 613.97 479.38 613.97 513.79V576H685.35C717.72 576 744 548.3 744 514.18V451.38ZM447.93 606.14H518.75C551.43 606.14 577.96 634.14 577.96 668.55V730.74H506.58C474.21 730.74 447.93 703.04 447.93 668.92V606.14ZM744 606.14H673.18C640.5 606.14 613.97 634.14 613.97 668.55V730.74H685.35C717.72 730.74 744 703.04 744 668.92V606.14Z" fill="white"/>
</g>
<defs>
<clipPath id="clip0_2_2340">
<rect width="1024" height="1024" fill="white"/>
</clipPath>
</defs>
</svg>
